img/search-results-page/magnifier-big.svg

<svg width="46" height="45" viewBox="0 0 46 45" fill="none" xmlns="http://www.w3.org/2000/svg">
<path d="M44.3638 39.1894L44.325 39.1505L34.9819 29.7975L34.694 29.5093L34.9181 29.1691C36.8397 26.2513 37.9611 22.7586 37.9615 19.001L44.3638 39.1894ZM44.3638 39.1894C45.1927 40.0616 45.2163 41.4987 44.4071 42.3947L44.7782 42.7298L44.4071 42.3947L43.1417 43.796L43.1416 43.7961C42.3314 44.6936 40.9633 44.7389 40.0954 43.8972L30.357 34.4517L30.0669 34.1703L29.7309 34.395C26.7978 36.3568 23.2738 37.5019 19.4808 37.5019C9.27495 37.5019 1 29.2193 1 19.001C1 8.783 9.2742 0.500406 19.4808 0.5C29.6865 0.5 37.9611 8.78263 37.9615 19.0009L44.3638 39.1894ZM19.48 4.92975C11.7154 4.92975 5.42205 11.2305 5.42248 19.0017C5.42248 26.7726 11.7157 33.0737 19.48 33.0737C27.2444 33.0737 33.5371 26.7729 33.5376 19.0017C33.5376 11.2309 27.2447 4.92975 19.48 4.92975Z" fill="#FC6733" stroke="#F9F9FA"/>
<path d="M16.3523 24.8455L13.6409 22.1312L22.6066 13.156L25.318 15.8703L16.3523 24.8455Z" fill="#FC6733"/>
<path d="M25.3197 22.1326L22.6083 24.8469L13.6427 15.8717L16.3541 13.1574L25.3197 22.1326Z" fill="#FC6733"/>
</svg>

<svg width="46" height="45" viewBox="0 0 46 45" fill="none" xmlns="http://www.w3.org/2000/svg"><path d="M44.364 39.19l-.039-.04-9.343-9.352-.288-.289.224-.34a18.426 18.426 0 0 0 3.044-10.168l6.402 20.188zm0 0c.829.872.852 2.309.043 3.205l.371.335-.37-.335-1.266 1.401a2.106 2.106 0 0 1-3.047.101l-9.738-9.445-.29-.282-.336.225a18.372 18.372 0 0 1-10.25 3.107C9.275 37.502 1 29.219 1 19 1 8.783 9.274.501 19.48.5 29.687.5 37.962 8.783 37.963 19l6.402 20.19zM19.48 4.93c-7.765 0-14.058 6.3-14.058 14.072 0 7.77 6.294 14.072 14.058 14.072s14.057-6.301 14.058-14.072c0-7.771-6.293-14.072-14.058-14.072z" fill="#FC6733" stroke="#F9F9FA"/><path d="M16.352 24.846l-2.711-2.715 8.966-8.975 2.711 2.714-8.966 8.976z" fill="#FC6733"/><path d="M25.32 22.133l-2.712 2.714-8.965-8.975 2.711-2.715 8.966 8.976z" fill="#FC6733"/></svg>
